**kern	**kern	**dynam
*part1	*part1	*part1
*staff2	*staff1	*
*I"Piano	*	*
*clefF4	*clefG2	*
*k[f#]	*k[f#]	*
=1	=1	=1
2C 2A	2e 2g	.
4C 4A	4e 4f#	.
=	=	=
2BB 2B	2e 2g	.
*	*^	*
!	!LO:TX:b:i:t=dim.	!	!
4AA	4e 4a	4c	.
=	=	=	=
2GG	2e 2b	2B	.
4AA	4e 4g	4c	.
=	=	=	=
4BB	4g	4d	.
*	*v	*v	*
2C 2G	(4d 4f#	.
.	4c) 4e	.
=	=	=
(2.C 2.F#	(2.A 2.d	>
=	=	=
2BB) 2G	2B) 2e	.
4AA 4E	4c 4g	] ppp
=	=	=
4AA 4E	4c 4g	.
!	!LO:TX:b:i:t=rit.	!
2AA 2E	2c 2g	.
=	=	=
*-	*-	*-
!!!system-decoration: {(s1,s2)}
